X:1507
T:Major Graham
O:ireland
M:C
H:repeats A::B||
K:G
"Very Slow" G|\
D>EGG G2{G}g>e| dBAG [D2A2] [AD]B| D>EGG G2{G}g>e| dB"tr"AB G2G:|
(d/e//f//)|\
g>agf "tr"e>deg| d>BAG A2ef| g>agf "tr"edeg| dB G2Ge/f/|
g>agf "tr"e>deg| dBAG A2AB| D>EGG G2{G}g>e| dBA>B G2G|]
